X:1
T:Title
%%score { ( 1 3 5 ) | ( 2 4 ) }
L:1/8
Q:1/4=90
M:6/8
K:C
V:1 treble nm="Grand Piano"
V:3 treble 
V:5 treble 
V:2 bass 
V:4 bass 
V:1
 AAA A^GA | dcF A3 | [EA][EG][_E^F] [=EG]3 | GFE F3 | AAA A^GA | dcF A3 | AGG GAB | [CEc]6 | %8
w: J.~Lincoln~Hall * * * * *||||||||
 [_Bc][CEBc][CEBc] [Bc][Bd][CEBc] | z3 [Af]3 | [_Bc][CEBc][CEBc] [Bc][Bd][CEBc] | [Ac]6 | AAA AGF | %13
w: |||||
 AAA D3 | DDE FED |[M:15/16] [^CA]3/2-[CA]3/2-[CA]3/2- [CA]3 |[M:3/4] A3 .G3 | %17
w: ||||
 c6[K:bass][K:treble] | F2 z .G3 | _B6[K:bass][K:treble] | _B3 .A3 | d6 | e2 z .c3 | %23
w: ||||||
 A6[K:bass][K:treble] | A3 .G3 | c6[K:bass][K:treble] | c2 z .c3 | d6 | f3 .e3 | c6 | z2 z .A3 | %31
w: ||||||||
 F6 |] %32
w: |
V:2
 [F,CF][F,CF][F,CF] [F,CF][F,B,F][F,CF] | [F,_B,F][F,A,F][F,A,C] [F,CF]3 | %2
 [C,_B,][C,B,][C,A,] [C,B,]3 | [F,_B,C][F,A,C][F,G,C] [F,A,C]3 | %4
 [F,CF][F,CF][F,CF] [F,CF][F,B,F][F,CF] | [F,_B,F][F,A,F][F,A,C][K:treble] [F,CF]3 | %6
 [G,CE][G,CE][G,CE] [G,B,F][G,CF][G,DF] | C,6 | C,G,G, C,[G,CE]G, | F,A,A, F,A,A, | %10
 C,G,G, C,[G,CE]G, | F,A,A, F,A,A, | A,A,A, A,G,F, | A,A,A, D,3 | %14
 [D,F,][D,F,][D,G,D] [D,A,D][D,G,D][D,F,] |[M:15/16] [A,,E,]3/2-[A,,E,]3/2-[A,,E,]3/2- [A,,E,]3 | %16
[M:3/4] z [C,F,A,] .[C,F,A,]2 [C,F,A,][C,F,A,C] | z [F,A,C] .[F,A,C]2 [F,A,C][F,A,] | %18
 z [C,F,A,] .[C,F,A,C]2 [C,F,A,][C,F,A,C] | z [D,G,_B,] .[D,G,B,]2 [G,B,][G,B,] | %20
 z [G,_B,C] .[G,B,C]2 [G,B,C][G,B,CE] | z[K:treble] [G,_B,E] .[G,B,E]2 [G,B,E][G,B,EG] | %22
 z [G,_B,E] .[G,B,EG]2 [G,B,E][G,B,EG] | z [C,F,A,] .[C,F,A,]2 [C,F,A,][C,F,A,] | %24
 z [C,F,A,] .[C,F,A,]2 [C,F,A,][C,F,A,C] | z [F,A,C] .[F,A,C]2 [F,A,C][F,A,CF] | %26
 [F,A,C_EF][F,A,CE] [F,A,CEF][F,A,CEF] [F,A,CE][K:treble][F,A,CEF] | %27
 [_B,DF][B,D] [B,D][B,D][K:bass] [B,D][B,D] | z [F,B,F] [F,B,F][F,B,FG] [F,B,F][F,B,FG] | %29
 z [F,A,CF] [F,A,CF][F,A,CF] [F,A,CF][F,A,CF] | z [D,F,B,D] .[D,F,B,]2 [G,_B,C][G,B,CE] | %31
 z [C,F,A,] [D,F,^G,] [C,F,A,]3 |] %32
V:3
 x6 | x6 | x6 | x6 | x6 | x6 | x6 | x6 | x6 | [Ac][CFAc][CFAc] z [CF][CF] | x6 | %11
 z [CF][CF] z [CF][CF] | x6 | x6 | x6 |[M:15/16] x15/2 |[M:3/4] z C .C2 CF | %17
 z F .F2[K:bass][K:treble] FC | z C .E2 CF | z D .D2[K:bass] D[K:treble]D | z E .E2 EG | %21
 z G .G2 Gd | z G .d2 G_B | z C .C2[K:bass] C[K:treble]C | z C .C2 CF | %25
 z F .F2[K:bass][K:treble] Fc | z F .B2 F^c | z F FF FF | z G .G2 Gd | z A AA AA | AG .D2 EG | %31
 z C B, C3 |] %32
V:4
 x6 | x6 | x6 | x6 | x6 | x3[K:treble] x3 | x6 | x6 | x6 | x6 | x6 | x6 | x6 | x6 | x6 | %15
[M:15/16] x15/2 |[M:3/4] F,,3 A,,3 | F,,4 z2 | F,,3 A,,3 | G,,4 z2 | C,3 E,3 | C,4[K:treble] z2 | %22
 C,3 E,3 | F,,4 z2 | F,,3 A,,3 | F,,4 z2 | x5[K:treble] x | x4[K:bass] x2 | B,,6 | C,6 | G,,3 C,3 | %31
 F,,6 |] %32
V:5
 x6 | x6 | x6 | x6 | x6 | x6 | x6 | x6 | x6 | x6 | x6 | x6 | x6 | x6 | x6 |[M:15/16] x15/2 | %16
[M:3/4] x6 | z2 z[K:bass] A,,3[K:treble] | x6 | z2 z[K:bass] D,3[K:treble] | x6 | z2 z E,3 | x6 | %23
 z2 z[K:bass] A,,3[K:treble] | x6 | z2 z[K:bass] A,,3[K:treble] | x6 | x6 | x6 | x6 | x6 | x6 |] %32

